app/assets/v2/images/hackathon-sponsors/big/quorum.svg

<?xml version="1.0" encoding="UTF-8"?>
<svg width="113px" height="136px" viewBox="0 0 113 136" version="1.1" xmlns="http://www.w3.org/2000/svg" xmlns:xlink="http://www.w3.org/1999/xlink">
    <!-- Generator: sketchtool 52.2 (67145) - http://www.bohemiancoding.com/sketch -->
    <title>50A3EBC4-B288-4E75-9384-2B3BE8D8D9FF</title>
    <desc>Created with sketchtool.</desc>
    <defs>
        <linearGradient x1="4.79204227%" y1="8.44362174%" x2="86.1259265%" y2="89.7767024%" id="linearGradient-1">
            <stop stop-color="#A5EDFA" offset="0%"></stop>
            <stop stop-color="#4FADFF" offset="100%"></stop>
        </linearGradient>
    </defs>
    <g id="Home" stroke="none" stroke-width="1" fill="none" fill-rule="evenodd">
        <g id="Home---1440" transform="translate(-161.000000, -1904.000000)">
            <g id="b_quo" transform="translate(161.000000, 1904.000000)">
                <path d="M15.6804583,135.274093 L12.2638447,136 L9.06301719,131.571965 L8.99108848,131.571965 C7.43262535,131.571965 6.08996956,131.275556 4.96308084,130.682728 C3.83619212,130.089901 2.90112827,129.249067 2.15786123,128.1602 C1.4145942,127.071334 0.869140291,125.764714 0.521483132,124.2403 C0.173825972,122.715887 0,121.034219 0,119.195244 C0,117.404664 0.18581397,115.765339 0.557447486,114.277222 C0.929081001,112.789104 1.48652291,111.50668 2.22978994,110.429912 C2.97305697,109.353144 3.91411482,108.51231 5.05299173,107.907384 C6.19186863,107.302458 7.52853041,107 9.06301719,107 C10.597504,107 11.9281717,107.302458 13.0550605,107.907384 C14.1819492,108.51231 15.117013,109.347095 15.8602801,110.411765 C16.6035471,111.476434 17.160989,112.752809 17.5326225,114.240926 C17.904256,115.729044 18.09007,117.35627 18.09007,119.122653 C18.09007,121.784327 17.7604001,124.028568 17.1010503,125.855444 C16.4417005,127.68232 15.3927507,129.103875 13.9541693,130.12015 L11.2208784,130.446809 L15.6804583,135.274093 Z M9.06301719,129.357947 C10.0220714,129.357947 10.8672253,129.182522 11.5985041,128.831665 C12.329783,128.480808 12.9411709,127.912186 13.4326862,127.125782 C13.9242015,126.339379 14.2958294,125.317069 14.5475812,124.058824 C14.7993329,122.800578 14.9252069,121.264089 14.9252069,119.449312 L14.9252069,118.433041 C14.9252069,115.214836 14.433699,112.916152 13.4506684,111.536921 C12.4676378,110.15769 10.993114,109.468085 9.02705283,109.468085 C7.06099165,109.468085 5.59246189,110.181887 4.62141948,111.609512 C3.65037707,113.037137 3.16486314,115.360017 3.16486314,118.578223 L3.16486314,119.558198 C3.16486314,121.372975 3.29073712,122.903415 3.54248886,124.149562 C3.7942406,125.395709 4.17186254,126.40592 4.67536601,127.180225 C5.17886948,127.95453 5.79625138,128.511054 6.52753024,128.849812 C7.25880909,129.188571 8.10396295,129.357947 9.06301719,129.357947 Z M32.6556334,112.117647 L35.4248886,112.117647 L35.4248886,131.06383 L33.842457,131.06383 L32.7275621,128.813517 L31.1451305,130.700876 C30.7375324,130.894452 30.2340365,131.069878 29.6346276,131.227159 C29.0352187,131.38444 28.3399148,131.463079 27.5486951,131.463079 C26.062161,131.463079 24.8573672,130.997293 23.9342775,130.065707 C23.0111878,129.134121 22.5496499,127.603682 22.5496499,125.474343 L22.5496499,112.117647 L25.3189052,112.117647 L25.3189052,125.909887 C25.3189052,127.19233 25.5886351,128.075509 26.1281031,128.559449 C26.6675711,129.04339 27.368869,129.285357 28.2320178,129.285357 C29.2150484,129.285357 30.0362263,129.146226 30.6955761,128.86796 C31.3549259,128.589694 32.0082717,128.196498 32.6556334,127.68836 L32.6556334,112.117647 Z M47.2931254,131.571965 C45.039348,131.571965 43.2411482,130.725081 41.8984723,129.031289 C40.5557964,127.337497 39.8844685,124.881535 39.8844685,121.663329 C39.8844685,120.042128 40.0642885,118.614524 40.4239338,117.380476 C40.7835791,116.146427 41.2870751,115.112019 41.9344367,114.277222 C42.5817983,113.442424 43.3610181,112.81331 44.2721197,112.389862 C45.1832212,111.966414 46.190213,111.754693 47.2931254,111.754693 C48.3960378,111.754693 49.3970356,111.966414 50.2961489,112.389862 C51.1952623,112.81331 51.9684882,113.436375 52.6158498,114.259074 C53.2632114,115.081773 53.7607133,116.104082 54.1083705,117.326033 C54.4560276,118.547983 54.6298536,119.957439 54.6298536,121.554443 C54.6298536,124.821043 53.9705137,127.307251 52.6518141,129.013141 C51.3331146,130.719032 49.5469028,131.571965 47.2931254,131.571965 Z M47.2931254,129.394243 C47.9644634,129.394243 48.5758513,129.261161 49.1273074,128.994994 C49.6787636,128.728826 50.1462956,128.305385 50.5299173,127.724656 C50.9135389,127.143927 51.2132389,126.381732 51.4290261,125.438048 C51.6448133,124.494363 51.7527053,123.332923 51.7527053,121.953692 L51.7527053,121.445557 C51.7527053,119.993735 51.6508073,118.789951 51.4470083,117.834168 C51.2432093,116.878385 50.9554973,116.11619 50.5838638,115.547559 C50.2122303,114.978929 49.7506923,114.579684 49.1992362,114.349812 C48.64778,114.11994 48.0124161,114.005006 47.2931254,114.005006 C46.5738347,114.005006 45.9384708,114.11994 45.3870146,114.349812 C44.8355585,114.579684 44.3680265,114.97288 43.9844048,115.529412 C43.6007831,116.085944 43.3070772,116.829991 43.1032782,117.761577 C42.8994791,118.693163 42.7975812,119.860652 42.7975812,121.26408 L42.7975812,121.808511 C42.7975812,123.211939 42.9054731,124.397575 43.1212603,125.365457 C43.3370475,126.333338 43.6367475,127.113681 44.0203692,127.706508 C44.4039909,128.299335 44.8775168,128.728826 45.4409612,128.994994 C46.0044055,129.261161 46.6217874,129.394243 47.2931254,129.394243 Z M63.6569064,112.40801 C64.0884808,112.214434 64.5200488,112.057155 64.9516232,111.93617 C65.3831976,111.815185 65.8387415,111.754693 66.3182686,111.754693 C66.8937012,111.754693 67.3852091,111.809136 67.7928071,111.918023 C68.2004052,112.026909 68.5120931,112.141843 68.7278803,112.262829 L68.188415,114.8398 C67.8287697,114.694618 67.4571417,114.579683 67.0735201,114.494994 C66.6898984,114.410304 66.1983904,114.36796 65.5989815,114.36796 C64.8317382,114.36796 64.1604103,114.51314 63.5849777,114.803504 C63.0095452,115.093869 62.4341213,115.456819 61.8586887,115.892365 L61.8586887,131.06383 L59.0894335,131.06383 L59.0894335,112.117647 L60.6718651,112.117647 L61.78676,114.585732 L63.6569064,112.40801 Z M82.2504774,112.117647 L85.0197327,112.117647 L85.0197327,131.06383 L83.4373011,131.06383 L82.3224061,128.813517 L80.7399745,130.700876 C80.3323765,130.894452 79.8288806,131.069878 79.2294717,131.227159 C78.6300628,131.38444 77.9347589,131.463079 77.1435391,131.463079 C75.6570051,131.463079 74.4522113,130.997293 73.5291216,130.065707 C72.6060319,129.134121 72.144494,127.603682 72.144494,125.474343 L72.144494,112.117647 L74.9137492,112.117647 L74.9137492,125.909887 C74.9137492,127.19233 75.1834792,128.075509 75.7229472,128.559449 C76.2624152,129.04339 76.9637131,129.285357 77.8268619,129.285357 C78.8098925,129.285357 79.6310703,129.146226 80.2904201,128.86796 C80.9497699,128.589694 81.6031158,128.196498 82.2504774,127.68836 L82.2504774,112.117647 Z M104.692234,112.589487 C105.05188,112.395911 105.519412,112.208386 106.094844,112.026909 C106.670277,111.845431 107.329616,111.754693 108.072884,111.754693 C109.60737,111.754693 110.812164,112.21443 111.687301,113.133917 C112.562438,114.053405 113,115.577795 113,117.707134 L113,131.06383 L110.230745,131.06383 L110.230745,117.271589 C110.230745,116.037541 109.984991,115.190657 109.493475,114.730914 C109.00196,114.27117 108.300662,114.041302 107.389561,114.041302 C106.502436,114.041302 105.753186,114.192531 105.141789,114.494994 C104.530392,114.797457 103.889034,115.190653 103.217696,115.674593 L103.217696,131.06383 L100.44844,131.06383 L100.44844,117.271589 C100.44844,116.037541 100.184705,115.190657 99.6572247,114.730914 C99.1297449,114.27117 98.446429,114.041302 97.6072565,114.041302 C96.7441077,114.041302 95.9948578,114.180432 95.3594844,114.458698 C94.724111,114.736964 94.0707651,115.118062 93.3994271,115.602003 L93.3994271,131.06383 L90.6301719,131.06383 L90.6301719,112.117647 L92.2126034,112.117647 L93.2915341,114.440551 L94.90993,112.589487 C95.2935517,112.395911 95.7670776,112.208386 96.330522,112.026909 C96.8939663,111.845431 97.5593002,111.754693 98.3265436,111.754693 C99.0218579,111.754693 99.6272518,111.827283 100.142743,111.972466 C100.658235,112.117648 101.143749,112.323319 101.5993,112.589487 L102.894017,114.585732 L104.692234,112.589487 Z" id="Quorum" fill="#FFFFFF"></path>
                <path d="M111,54.4477612 L111,84.5373134 L111,94 C111,95.1045695 110.104569,96 109,96 L53.2307692,96 C52.1261997,96 51.2307692,95.1045695 51.2307692,94 L51.2307692,84.5373134 L51.2307692,11.4626866 L11.3846154,11.4626866 L11.3846154,40.119403 L40.6923077,40.119403 C41.7968772,40.119403 42.6923077,41.0148335 42.6923077,42.119403 L42.6923077,49.5820896 C42.6923077,50.6866591 41.7968772,51.5820896 40.6923077,51.5820896 L2,51.5820896 C0.8954305,51.5820896 1.3527075e-16,50.6866591 0,49.5820896 L0,44.4179104 L0,11.4626866 L-2.22044605e-16,2 C-3.57315355e-16,0.8954305 0.8954305,2.02906125e-16 2,0 L60.6153846,0 C61.7199541,3.72131305e-15 62.6153846,0.8954305 62.6153846,2 L62.6153846,11.4626866 L62.6153846,84.5373134 L99.6153846,84.5373134 L99.6153846,55.880597 L70.3076923,55.880597 C69.2031228,55.880597 68.3076923,54.9851665 68.3076923,53.880597 L68.3076923,46.4179104 C68.3076923,45.3133409 69.2031228,44.4179104 70.3076923,44.4179104 L109,44.4179104 C110.104569,44.4179104 111,45.3133409 111,46.4179104 L111,54.4477612 Z" id="Combined-Shape" fill="url(#linearGradient-1)"></path>
            </g>
        </g>
    </g>
</svg>

<svg width="113" height="136" xmlns="http://www.w3.org/2000/svg"><defs><linearGradient x1="4.792%" y1="8.444%" x2="86.126%" y2="89.777%" id="a"><stop stop-color="#A5EDFA" offset="0%"/><stop stop-color="#4FADFF" offset="100%"/></linearGradient></defs><g fill="none" fill-rule="evenodd"><path d="M15.68 135.274l-3.416.726-3.201-4.428h-.072c-1.558 0-2.901-.296-4.028-.89a7.703 7.703 0 0 1-2.805-2.522c-.743-1.089-1.289-2.395-1.637-3.92-.347-1.524-.521-3.206-.521-5.045 0-1.79.186-3.43.557-4.918.372-1.488.93-2.77 1.673-3.847a7.879 7.879 0 0 1 2.823-2.523c1.139-.605 2.476-.907 4.01-.907 1.535 0 2.865.302 3.992.907a7.989 7.989 0 0 1 2.805 2.505c.744 1.064 1.301 2.34 1.673 3.829.371 1.488.557 3.115.557 4.882 0 2.661-.33 4.906-.989 6.732-.66 1.827-1.708 3.249-3.147 4.265l-2.733.327 4.46 4.827zm-6.617-5.916c.96 0 1.804-.175 2.536-.526.73-.351 1.342-.92 1.834-1.706.491-.787.863-1.809 1.115-3.067.251-1.258.377-2.795.377-4.61v-1.016c0-3.218-.491-5.517-1.474-6.896-.983-1.38-2.458-2.069-4.424-2.069-1.966 0-3.435.714-4.406 2.142-.97 1.427-1.456 3.75-1.456 6.968v.98c0 1.815.126 3.345.377 4.592.252 1.246.63 2.256 1.133 3.03.504.775 1.121 1.331 1.853 1.67.73.339 1.576.508 2.535.508zm23.593-17.24h2.769v18.946h-1.583l-1.114-2.25-1.583 1.887a8.721 8.721 0 0 1-1.51.526c-.6.157-1.295.236-2.086.236-1.487 0-2.692-.466-3.615-1.397-.923-.932-1.384-2.462-1.384-4.592v-13.356h2.769v13.792c0 1.282.27 2.166.81 2.65.539.483 1.24.725 2.103.725.983 0 1.804-.139 2.464-.417a8.615 8.615 0 0 0 1.96-1.18v-15.57zm14.637 19.454c-2.254 0-4.052-.847-5.395-2.54-1.342-1.695-2.014-4.15-2.014-7.369 0-1.62.18-3.048.54-4.283.36-1.234.863-2.268 1.51-3.103a6.285 6.285 0 0 1 2.338-1.887c.911-.424 1.918-.635 3.021-.635s2.104.211 3.003.635a6.397 6.397 0 0 1 2.32 1.87c.647.822 1.145 1.844 1.492 3.066.348 1.222.522 2.631.522 4.228 0 3.267-.66 5.753-1.978 7.46-1.319 1.705-3.105 2.558-5.359 2.558zm0-2.178c.671 0 1.283-.133 1.834-.399.552-.266 1.02-.69 1.403-1.27.384-.581.683-1.343.899-2.287.216-.944.324-2.105.324-3.484v-.508c0-1.452-.102-2.656-.306-3.612-.204-.956-.492-1.718-.863-2.286-.372-.57-.833-.968-1.385-1.198-.551-.23-1.187-.345-1.906-.345-.72 0-1.355.115-1.906.345-.551.23-1.019.623-1.403 1.18-.383.556-.677 1.3-.88 2.232-.205.931-.306 2.099-.306 3.502v.545c0 1.403.107 2.589.323 3.556.216.968.516 1.749.9 2.342.383.592.857 1.022 1.42 1.288s1.18.4 1.852.4zm16.364-16.986c.431-.194.863-.35 1.295-.472a5.04 5.04 0 0 1 1.366-.181c.576 0 1.067.054 1.475.163.407.109.72.224.935.345l-.54 2.577a7.01 7.01 0 0 0-1.114-.345c-.384-.085-.876-.127-1.475-.127-.767 0-1.439.145-2.014.436-.575.29-1.15.653-1.726 1.088v15.172h-2.77v-18.946h1.583l1.115 2.468 1.87-2.178zm18.593-.29h2.77v18.946h-1.583l-1.115-2.25-1.582 1.887a8.721 8.721 0 0 1-1.51.526c-.6.157-1.295.236-2.086.236-1.487 0-2.692-.466-3.615-1.397-.923-.932-1.385-2.462-1.385-4.592v-13.356h2.77v13.792c0 1.282.27 2.166.809 2.65.54.483 1.24.725 2.104.725.983 0 1.804-.139 2.463-.417a8.615 8.615 0 0 0 1.96-1.18v-15.57zm22.442.471c.36-.193.827-.38 1.403-.562.575-.182 1.235-.272 1.978-.272 1.534 0 2.74.46 3.614 1.379.875.92 1.313 2.444 1.313 4.573v13.357h-2.77v-13.792c0-1.234-.245-2.081-.737-2.541-.491-.46-1.192-.69-2.103-.69-.888 0-1.637.152-2.248.454-.612.302-1.253.696-1.924 1.18v15.389h-2.77v-13.792c0-1.234-.263-2.081-.79-2.541-.528-.46-1.212-.69-2.05-.69-.864 0-1.613.14-2.249.418-.635.278-1.288.66-1.96 1.143v15.462H90.63v-18.946h1.583l1.079 2.323 1.618-1.852a9.997 9.997 0 0 1 1.42-.562c.564-.182 1.23-.272 1.997-.272.695 0 1.3.072 1.816.217.515.146 1 .351 1.456.617l1.295 1.997 1.798-1.997z" fill="#FFF"/><path d="M111 54.448V94a2 2 0 0 1-2 2H53.23a2 2 0 0 1-2-2V11.463H11.386v28.656h29.307a2 2 0 0 1 2 2v7.463a2 2 0 0 1-2 2H2a2 2 0 0 1-2-2V2a2 2 0 0 1 2-2h58.615a2 2 0 0 1 2 2V84.537h37V55.881H70.308a2 2 0 0 1-2-2v-7.463a2 2 0 0 1 2-2H109a2 2 0 0 1 2 2v8.03z" fill="url(#a)"/></g></svg>
